X:1
T:Title
%%score { ( 1 4 ) | ( 2 3 ) }
L:1/8
Q:1/4=106
M:3/4
K:C
V:1 treble nm="Grand Piano"
V:4 treble 
V:2 bass 
V:3 bass 
V:1
 E2 C2 D2 | E3 C [A,CF]2 | [G,CE]6 | [F,B,D]2 [D,G,B,]2 [E,C]2 | [F,B,D]3 [G,C] [G,B,E]2 | [E,C]6 | %6
w: B.~E.~Warren * *||||||
 [CEG]2 [G,CE]2 [G,DF]2 | [CEG]3 [CE] [Ec]2 |[M:4/4] [Fc]6 [Fc]2 | [^Fc]2 A2 d4- | d2 d2 d2 c2 | %11
w: |||||
[M:17/16] e/-e/-e/-e/-e/-e/-e/-e/-e-<e[CAc]3/2[C_EA] |[M:4/4] [CEG]4 [DF]4 | [G,CE]6 z2 | %14
w: |||
 [CGc]4 [FB]2 [Ec]2 | d4 e3 d | [Ec]6 z2 |] %17
w: |||
V:2
 [C,G,C]2 [C,E,]2 [C,F,C]2 | [G,C]4 z2 | C,6 | G,,2 G,,2 G,,2 | z2 z E, G,,2 | C,6 | C,2 C,2 C,2 | %7
 z2 z G, [C,G,]2 |[M:4/4] [F,A,]6 [F,A,]2 | [D,A,]2 [^F,C]2[K:treble] [G,B,G]4- | %10
 [G,B,G]2 [G,B,F]2 [G,B,F]2 [CE]2 | %11
[M:17/16] [CG]/-[CG]/-[CG]/-[CG]/-[CG]/-[CG]/-[CG]/-[CG]/-[CG]-<[CG][K:bass]F,3/2^F, | %12
[M:4/4] G,4 z2 G,2 | C,6 z2 | E,4 [D,G,]2 [C,C]2 | [G,B,F]4 [G,CG]3 [G,F] | [C,G,]6 z2 |] %17
V:3
 x6 | C,3- [C,E,] C,2 | x6 | x6 | G,,4 z2 | x6 | x6 | C,4 z2 |[M:4/4] x8 | x4[K:treble] x4 | x8 | %11
[M:17/16] x6[K:bass] x5/2 |[M:4/4] z4 G,,4 | x8 | x8 | z4 G,,4 | x8 |] %17
V:4
 x6 | x6 | x6 | x6 | x6 | x6 | x6 | x6 |[M:4/4] x8 | x8 | x8 |[M:17/16] x17/2 |[M:4/4] z4 B,2 z2 | %13
 x8 | x8 | x8 | x8 |] %17

